!! 00000] TT[WS
!!!OTL: Pao kouwai paode xin canle
!!!ARE: Asia, China,ÿShanxi Hequ
!! Ethnic Group: Han
!! WI, 28
!!!SCT: J0029
!!!YEM: Copyright 1995, estate of Helmut Schaffrath.
**kern
*ICvox
*Ivox
*M2/4
*k[b-e-]
*B-:
{8gg
8gg
8gg
8dd
=1
8dd
16dd
16bb-
4gg
=2
8gg
16gg
16ccc
8fff
16dd
16cc
=3
2dd}
=4
{8gg
16gg
16bb-
4gg
=5
8gg
16gg
16ccc
8ff
16dd
16cc
=6
8dd
8a
8g
16d
16d
=7
2g}
==
!!!AGN: Shange, Shanqu. Qingge
!!!ONB: ESAC (Essen Associative Code) Database: CHINA
!!!AMT: simple duple
!!!AIN: vox
!!!EED: Helmut Schaffrath
!!!EEV: 1.0
*-
